X:1
T:Title
%%score { ( 1 3 ) | ( 2 4 5 ) }
L:1/8
Q:1/4=100
M:6/8
K:C
V:1 treble nm="Grand Piano"
V:3 treble 
V:2 bass 
V:4 bass 
V:5 bass 
V:1
 [EG][EG][EG] [Ec]2 [EG] | [_EA] [=EG]2- [EG]2 z | Bcd c2 [DB] | [Ec]6 | AAA ABc | %5
w: A.~L.~Byers * * * *|||||
 [Ec] [EG]2- [EG]2 z | DGB B2 A | [B,G]6 | d6 | G c2- c2 z | [Ge][Ge][Ge] [^FA]2 [Fd] | %11
w: ||||||
 [Gd]3- [Gd]2 [FG] | [Ec][Ec][Ec] [Ec]2 [Ge] |[M:7/8] dcA [EG]3 [EG] |[M:3/4] [FA][Af] d c2 B | %15
w: ||||
 cc- c4 |] %16
w: |
V:2
 [C,C][C,C][C,C] [C,G,]2 [C,C] | [C,C] [C,C]2- [C,C]2 z | [G,D][G,E][G,F][K:bass] [G,E]2 [G,,G,] | %3
 [C,G,]6 | [F,CF][F,CF][F,CF] [F,CF]2 [F,A,F] | [C,G,] [C,G,]2- [C,G,]2 z | %6
 [D,G,B,][D,B,D][D,G,D] [D,G,D]2 [D,^F,C] | [G,,G,]6 | [G,B,F]2 [G,B,][K:bass] [G,B,] .[G,B,]2 | %9
 [C,C]2 [C,G,] [C,A,] .[C,G,]2 | [C,C][C,C][C,C] [D,C]2 [D,A,] | [G,B,]3- [G,B,]2 [G,B,] | %12
 [C,C][C,G,][C,G,] [C,G,]2 [C,_B,] |[M:7/8] [F,A,F][F,A,F][F,CF] [C,C]3 [C,C] | %14
[M:3/4] [F,C][F,C] [F,A,F] [G,E]2 G,, | G,2 z2 z2 |] %16
V:3
 x6 | x6 | x6 | x6 | x6 | x6 | x6 | x6 | z2 F FFG | E2 E F .E2 | x6 | x6 | x6 |[M:7/8] x7 | %14
[M:3/4] x6 | E2 EF E2 |] %16
V:4
 x6 | x6 | x3[K:bass] x3 | x6 | x6 | x6 | x6 | x6 | x3[K:bass] x3 | x6 | x6 | x6 | x6 |[M:7/8] x7 | %14
[M:3/4] x6 | .C,2 G,A, G,2 |] %16
V:5
 x6 | x6 | x3[K:bass] x3 | x6 | x6 | x6 | x6 | x6 | x3[K:bass] x3 | x6 | x6 | x6 | x6 |[M:7/8] x7 | %14
[M:3/4] x6 | z C,- C,4 |] %16

